X: 37924
T: Souvenir
R: hornpipe
M: 4/4
K: Gmajor
B,DGD BGDB,|CEGE cGEC|DFAF dAFA|GBdB gdBG|
B,DGD BGDB,|CEGE cGEC|DFAd fdcA|1 G2 B2 G2 DC:|2 G2 B2 G2 gf||
ecGc e/c/ege|dBGB d^c=cA|FD^CD FAce|(3ded (3BdB (3GAG DD|
EGcE DGBD|CEAC B,DGD|(3EEE (3FFF (3GGG (3AAA|1 B2 D2 G2gf:|2 B2 D2 G4||

